Sources/FrostedUI/Resources/Icons.xcassets/gamepadFilled12.imageset/gamepad-filled-12.svg

<svg width="12" height="12" viewBox="0 0 12 12" fill="none" xmlns="http://www.w3.org/2000/svg" data-fui-icon="true">
  <path
    d="M7.78442 1.25C9.71097 1.25 11.3241 2.70997 11.5159 4.62695L11.8811 8.27637C12.0134 9.6008 10.9729 10.75 9.64185 10.75H9.60962C9.02302 10.7499 8.45941 10.5207 8.03931 10.1113L7.41333 9.50098C7.27337 9.36462 7.08529 9.28819 6.88989 9.28809H5.10962C4.91416 9.28817 4.72616 9.36455 4.58618 9.50098L3.96021 10.1113C3.54015 10.5206 2.97639 10.7499 2.38989 10.75H2.35669C1.02587 10.7497 -0.0138752 9.60063 0.118408 8.27637L0.482666 4.62695C0.674357 2.71016 2.28782 1.25031 4.21411 1.25H7.78442ZM4.24927 4.25C3.55918 4.25027 2.99933 4.80987 2.99927 5.5C2.99933 6.19013 3.55918 6.74973 4.24927 6.75C4.93958 6.75 5.4992 6.1903 5.49927 5.5C5.4992 4.8097 4.93958 4.25 4.24927 4.25ZM7.74927 4.25C7.05918 4.25027 6.49933 4.80987 6.49927 5.5C6.49933 6.19013 7.05918 6.74973 7.74927 6.75C8.43958 6.75 8.9992 6.1903 8.99927 5.5C8.9992 4.8097 8.43958 4.25 7.74927 4.25Z"
    fill="currentColor"
  />
</svg>

<svg xmlns="http://www.w3.org/2000/svg" width="12" height="12" fill="none" data-fui-icon="true" viewBox="0 0 12 12"><path fill="currentColor" d="M7.784 1.25a3.75 3.75 0 0 1 3.732 3.377l.365 3.65a2.25 2.25 0 0 1-2.24 2.473H9.61a2.25 2.25 0 0 1-1.57-.639l-.627-.61a.75.75 0 0 0-.523-.213H5.11a.75.75 0 0 0-.524.213l-.626.61c-.42.41-.984.639-1.57.639h-.033A2.25 2.25 0 0 1 .118 8.276l.365-3.649A3.75 3.75 0 0 1 4.214 1.25zm-3.535 3a1.25 1.25 0 1 0 .001 2.501 1.25 1.25 0 0 0 0-2.501m3.5 0a1.25 1.25 0 1 0 .001 2.501 1.25 1.25 0 0 0 0-2.501"/></svg>
